flaticon/emoticons/tired-2.svg

<svg xmlns="http://www.w3.org/2000/svg" width="32" height="32" viewBox="0 0 24 24">
    <path d="M16.539062 16.003906C16.316406 16.003906 16.136719 16.183594 16.136719 16.40625 16.136719 16.453125 16.132812 16.496094 16.125 16.539062 14.777344 15.933594 13.28125 15.835938 11.867188 16.28125 10.480469 16.71875 9.324219 17.625 8.566406 18.851562 8.546875 18.789062 8.535156 18.71875 8.535156 18.644531 8.535156 18.425781 8.355469 18.246094 8.132812 18.246094 7.914062 18.246094 7.734375 18.425781 7.734375 18.644531 7.734375 19.484375 8.417969 20.167969 9.253906 20.167969 9.476562 20.167969 9.65625 19.988281 9.65625 19.765625 9.65625 19.546875 9.476562 19.367188 9.253906 19.367188 9.234375 19.367188 9.21875 19.363281 9.199219 19.359375 9.851562 18.253906 10.871094 17.433594 12.105469 17.046875 13.210938 16.699219 14.371094 16.734375 15.4375 17.125 15.433594 17.125 15.425781 17.125 15.417969 17.125 15.195312 17.125 15.015625 17.304688 15.015625 17.527344 15.015625 17.746094 15.195312 17.925781 15.417969 17.925781 16.253906 17.925781 16.9375 17.242188 16.9375 16.40625 16.9375 16.183594 16.757812 16.003906 16.539062 16.003906zM11.335938 12.003906C11.335938 10.460938 10.078125 9.203125 8.535156 9.203125 6.988281 9.203125 5.734375 10.460938 5.734375 12.003906 5.734375 13.546875 6.988281 14.804688 8.535156 14.804688 10.078125 14.804688 11.335938 13.546875 11.335938 12.003906zM10.535156 12.003906C10.535156 12.140625 10.519531 12.273438 10.496094 12.402344L9.222656 12.402344C9.292969 12.285156 9.335938 12.148438 9.335938 12.003906 9.335938 11.855469 9.292969 11.722656 9.222656 11.601562L10.496094 11.601562C10.519531 11.734375 10.535156 11.867188 10.535156 12.003906zM8.535156 10.003906C9.183594 10.003906 9.757812 10.320312 10.125 10.804688L6.945312 10.804688C7.308594 10.320312 7.882812 10.003906 8.535156 10.003906zM6.574219 11.601562L7.84375 11.601562C7.777344 11.722656 7.734375 11.855469 7.734375 12.003906 7.734375 12.148438 7.777344 12.285156 7.84375 12.402344L6.574219 12.402344C6.546875 12.273438 6.535156 12.140625 6.535156 12.003906 6.535156 11.867188 6.546875 11.734375 6.574219 11.601562zM6.945312 13.203125L10.125 13.203125C9.757812 13.6875 9.183594 14.003906 8.535156 14.003906 7.882812 14.003906 7.308594 13.6875 6.945312 13.203125zM15.738281 9.203125C14.191406 9.203125 12.9375 10.460938 12.9375 12.003906 12.9375 13.546875 14.191406 14.804688 15.738281 14.804688 17.28125 14.804688 18.539062 13.546875 18.539062 12.003906 18.539062 10.460938 17.28125 9.203125 15.738281 9.203125zM15.738281 10.003906C16.386719 10.003906 16.960938 10.320312 17.328125 10.804688L14.144531 10.804688C14.511719 10.320312 15.085938 10.003906 15.738281 10.003906zM17.738281 12.003906C17.738281 12.140625 17.722656 12.273438 17.699219 12.402344L16.425781 12.402344C16.496094 12.285156 16.539062 12.148438 16.539062 12.003906 16.539062 11.855469 16.496094 11.722656 16.425781 11.601562L17.699219 11.601562C17.722656 11.734375 17.738281 11.867188 17.738281 12.003906zM13.777344 11.601562L15.046875 11.601562C14.980469 11.722656 14.9375 11.855469 14.9375 12.003906 14.9375 12.148438 14.980469 12.285156 15.046875 12.402344L13.777344 12.402344C13.75 12.273438 13.734375 12.140625 13.734375 12.003906 13.734375 11.867188 13.75 11.734375 13.777344 11.601562zM15.738281 14.003906C15.085938 14.003906 14.511719 13.6875 14.148438 13.203125L17.328125 13.203125C16.960938 13.6875 16.386719 14.003906 15.738281 14.003906zM15.738281 14.003906"/>
    <path d="M 22.515625 7.539062 C 22.289062 5.90625 21.585938 4.496094 20.585938 3.671875 C 20.328125 3.457031 20.136719 3.125 20.023438 2.679688 C 19.691406 1.394531 18.484375 0.496094 16.945312 0.390625 C 16.09375 0.335938 15.347656 0.597656 14.53125 0.925781 C 14.503906 0.9375 14.472656 0.933594 14.421875 0.90625 C 14.253906 0.460938 13.878906 0.15625 13.359375 0.046875 C 12.15625 -0.207031 10.304688 0.570312 8.816406 1.925781 C 8.816406 1.566406 8.890625 1.25 9.09375 1.148438 L 9.769531 0.8125 L 9.109375 0.441406 C 8.414062 0.0507812 6.742188 -0.375 5.375 0.820312 C 4.878906 1.253906 4.519531 1.859375 4.335938 2.570312 C 4.296875 2.71875 4.257812 2.875 4.226562 3.027344 C 4.210938 3.09375 4.15625 3.113281 4.132812 3.121094 C 4.089844 3.128906 4.054688 3.117188 4.011719 3.070312 C 3.800781 2.8125 3.476562 2.683594 3.144531 2.726562 C 2.828125 2.773438 2.558594 2.976562 2.433594 3.273438 C 1.644531 5.101562 0.171875 9.753906 3.3125 13.734375 L 3.3125 20.398438 C 3.3125 21.5 4.210938 22.398438 5.3125 22.398438 L 6.515625 22.398438 L 6.515625 23.078125 C 6.515625 23.585938 6.929688 24 7.4375 24 L 16.796875 24 C 17.304688 24 17.71875 23.585938 17.71875 23.078125 L 17.71875 22.398438 L 18.917969 22.398438 C 20.023438 22.398438 20.917969 21.5 20.917969 20.398438 L 20.917969 13.753906 C 21.386719 13.226562 23.007812 11.109375 22.515625 7.539062 Z M 3.167969 3.589844 C 3.175781 3.574219 3.191406 3.53125 3.257812 3.519531 C 3.277344 3.519531 3.34375 3.515625 3.414062 3.601562 C 3.636719 3.867188 3.984375 3.980469 4.320312 3.898438 C 4.667969 3.8125 4.929688 3.546875 5.007812 3.203125 C 5.039062 3.058594 5.074219 2.910156 5.109375 2.773438 C 5.253906 2.21875 5.527344 1.75 5.902344 1.421875 C 6.742188 0.691406 7.671875 0.785156 8.222656 0.945312 C 8.023438 1.324219 7.964844 1.859375 8.054688 2.511719 C 8.085938 2.726562 8.234375 2.902344 8.441406 2.96875 C 8.648438 3.039062 8.875 2.984375 9.03125 2.828125 C 10.554688 1.28125 12.308594 0.644531 13.191406 0.832031 C 13.570312 0.910156 13.648438 1.117188 13.671875 1.1875 C 13.75 1.398438 13.910156 1.5625 14.121094 1.65625 C 14.34375 1.753906 14.601562 1.757812 14.828125 1.667969 C 15.578125 1.371094 16.203125 1.140625 16.890625 1.191406 C 17.835938 1.253906 18.953125 1.734375 19.25 2.878906 C 19.40625 3.492188 19.683594 3.964844 20.074219 4.289062 C 20.476562 4.621094 21.441406 5.609375 21.722656 7.648438 C 22.03125 9.871094 21.445312 11.457031 20.917969 12.375 L 20.917969 6.894531 L 20.316406 7.25 C 19.332031 7.828125 18.472656 8.003906 17.761719 7.773438 C 17.652344 7.738281 17.546875 7.695312 17.453125 7.644531 C 17.40625 7.621094 17.367188 7.589844 17.324219 7.5625 C 17.277344 7.535156 17.230469 7.507812 17.1875 7.476562 C 17.125 7.429688 17.070312 7.382812 17.015625 7.332031 C 17.003906 7.316406 16.984375 7.304688 16.96875 7.292969 C 16.648438 6.980469 16.5 6.664062 16.488281 6.636719 L 16.484375 6.632812 L 16.398438 6.429688 L 16.179688 6.398438 C 12.339844 5.804688 10.472656 7.414062 9.949219 7.972656 C 7.335938 7.691406 6.109375 6.96875 5.957031 6.875 C 5.949219 6.867188 5.941406 6.863281 5.941406 6.863281 L 5.644531 6.660156 L 5.410156 6.933594 C 4.785156 7.65625 4.066406 8.023438 3.574219 8.207031 L 3.3125 8.304688 L 3.3125 12.332031 C 1.351562 9.054688 2.335938 5.515625 3.167969 3.589844 Z M 16.917969 23.078125 C 16.917969 23.144531 16.863281 23.199219 16.796875 23.199219 L 7.4375 23.199219 C 7.371094 23.199219 7.3125 23.144531 7.3125 23.078125 L 7.3125 22.398438 L 16.917969 22.398438 Z M 20.117188 20.398438 C 20.117188 21.058594 19.582031 21.597656 18.917969 21.597656 L 5.3125 21.597656 C 4.652344 21.597656 4.113281 21.058594 4.113281 20.398438 L 4.113281 8.855469 C 4.605469 8.640625 5.222656 8.285156 5.792969 7.699219 C 6.355469 7.992188 7.714844 8.5625 10.078125 8.792969 L 10.300781 8.8125 L 10.4375 8.632812 C 10.5 8.550781 11.992188 6.636719 15.859375 7.160156 C 16.066406 7.515625 16.578125 8.230469 17.503906 8.53125 C 18.285156 8.789062 19.160156 8.695312 20.117188 8.253906 Z M 20.117188 20.398438"/>
</svg>

<svg xmlns="http://www.w3.org/2000/svg" width="32" height="32" viewBox="0 0 24 24">
    <path d="M16.54 16.004a.402.402 0 0 0-.403.402.73.73 0 0 1-.012.133 5.958 5.958 0 0 0-4.258-.258 5.971 5.971 0 0 0-3.3 2.57.697.697 0 0 1-.032-.206.401.401 0 0 0-.8 0c0 .84.683 1.523 1.519 1.523a.401.401 0 0 0 0-.8c-.02 0-.035-.005-.055-.009a5.145 5.145 0 0 1 2.906-2.312 5.15 5.15 0 0 1 3.332.078h-.019a.401.401 0 0 0 0 .8c.836 0 1.52-.683 1.52-1.519a.401.401 0 0 0-.399-.402zm0 0M11.336 12.004c0-1.543-1.258-2.8-2.8-2.8a2.803 2.803 0 0 0-2.802 2.8c0 1.543 1.254 2.8 2.801 2.8 1.543 0 2.8-1.257 2.8-2.8zm-.8 0c0 .137-.016.27-.04.398H9.223a.775.775 0 0 0 .113-.398.79.79 0 0 0-.113-.402h1.273c.024.132.04.265.04.402zm-2-2c.648 0 1.222.316 1.589.8h-3.18c.364-.484.938-.8 1.59-.8zm-1.962 1.598h1.27a.826.826 0 0 0-.11.402c0 .144.043.281.11.398h-1.27a1.915 1.915 0 0 1-.039-.398c0-.137.012-.27.04-.402zm.371 1.601h3.18c-.367.485-.941.8-1.59.8a1.982 1.982 0 0 1-1.59-.8zm0 0M15.738 9.203a2.803 2.803 0 0 0-2.8 2.8c0 1.544 1.253 2.802 2.8 2.802 1.543 0 2.801-1.258 2.801-2.801 0-1.543-1.258-2.8-2.8-2.8zm0 .8c.649 0 1.223.317 1.59.802h-3.183c.367-.485.94-.801 1.593-.801zm2 2c0 .138-.015.27-.039.4h-1.273a.775.775 0 0 0 .113-.4.79.79 0 0 0-.113-.401h1.273c.024.132.04.265.04.402zm-3.96-.401h1.269a.826.826 0 0 0-.11.402c0 .144.043.281.11.398h-1.27a1.915 1.915 0 0 1 0-.8zm1.96 2.402a1.982 1.982 0 0 1-1.59-.8h3.18c-.367.483-.941.8-1.59.8zm0 0"/>
    <path d="M22.516 7.54c-.227-1.634-.93-3.044-1.93-3.868-.258-.215-.45-.547-.563-.992-.332-1.285-1.539-2.184-3.078-2.29-.851-.054-1.597.208-2.414.536-.027.011-.058.008-.11-.02-.167-.445-.542-.75-1.062-.86-1.203-.253-3.054.524-4.543 1.88 0-.36.075-.676.278-.778L9.77.813 9.11.44c-.696-.39-2.368-.816-3.735.38-.496.433-.855 1.038-1.04 1.75-.038.148-.077.304-.108.456-.016.067-.07.086-.094.094-.043.008-.078-.004-.121-.05a.955.955 0 0 0-.867-.344.91.91 0 0 0-.711.546c-.79 1.829-2.262 6.48.878 10.461v6.664c0 1.102.899 2 2 2h1.204v.68c0 .508.414.922.921.922h9.36a.924.924 0 0 0 .922-.922v-.68h1.199c1.105 0 2-.898 2-2v-6.644c.469-.527 2.09-2.645 1.598-6.215zM3.168 3.59c.008-.016.023-.059.09-.07.02 0 .086-.004.156.082.223.265.57.378.906.296a.925.925 0 0 0 .688-.695c.031-.144.066-.293.101-.43.145-.554.418-1.023.793-1.351.84-.73 1.77-.637 2.32-.477-.199.38-.257.914-.167 1.567.03.215.18.39.386.457.207.07.434.015.59-.14C10.555 1.28 12.31.644 13.191.831c.38.078.457.285.48.356.079.21.24.375.45.468.223.098.48.102.707.012.75-.297 1.375-.527 2.063-.477.945.063 2.062.543 2.359 1.688.156.613.434 1.086.824 1.41.403.332 1.367 1.32 1.649 3.36.308 2.222-.278 3.808-.805 4.726v-5.48l-.602.355c-.984.578-1.843.754-2.554.523a1.827 1.827 0 0 1-.309-.128c-.047-.024-.086-.055-.129-.082-.047-.028-.094-.055-.137-.086a2.098 2.098 0 0 1-.171-.145c-.012-.016-.032-.027-.047-.039a2.362 2.362 0 0 1-.48-.656l-.005-.004-.086-.203-.218-.032c-3.84-.593-5.707 1.016-6.23 1.575-2.614-.282-3.84-1.004-3.993-1.098-.008-.008-.016-.012-.016-.012l-.296-.203-.235.274a4.514 4.514 0 0 1-1.836 1.273l-.261.098v4.027c-1.961-3.277-.977-6.816-.145-8.742zm13.75 19.488a.122.122 0 0 1-.121.121h-9.36a.125.125 0 0 1-.125-.12v-.68h9.606zm3.2-2.68a1.2 1.2 0 0 1-1.2 1.2H5.313c-.66 0-1.2-.54-1.2-1.2V8.855A5.299 5.299 0 0 0 5.793 7.7c.562.293 1.922.864 4.285 1.094l.223.02.136-.18c.063-.082 1.555-1.996 5.422-1.473.207.356.72 1.07 1.645 1.371.781.258 1.656.164 2.613-.277zm0 0"/>
</svg>
